Sources/FrostedUI/Resources/Icons.xcassets/refresh20.imageset/refresh-20.svg

<svg xmlns="http://www.w3.org/2000/svg" width="20" height="20" fill="none" data-fui-icon="true" viewBox="0 0 20 20"><path stroke="currentColor" stroke-linecap="round" stroke-linejoin="round" stroke-width="1.5" d="M1.75 8.25c0-2 2.75-6.5 7.75-6.5s7.75 4.5 7.75 6.5"/><path stroke="currentColor" stroke-linecap="round" stroke-linejoin="round" stroke-width="1.5" d="M12.75 8.25h4.5a1 1 0 0 0 1-1v-4.5m0 9c0 2-2.75 6.5-7.75 6.5s-7.75-4.5-7.75-6.5"/><path stroke="currentColor" stroke-linecap="round" stroke-linejoin="round" stroke-width="1.5" d="M7.25 11.75h-4.5a1 1 0 0 0-1 1v4.5"/></svg>

<svg
  width="20"
  height="20"
  viewBox="0 0 20 20"
  fill="none"
  xmlns="http://www.w3.org/2000/svg"
  data-fui-icon="true"
>
  <path
    d="M1.75 8.25C1.75 6.25 4.5 1.75 9.5 1.75C14.5 1.75 17.25 6.25 17.25 8.25"
    stroke="currentColor"
    stroke-width="1.5"
    stroke-linecap="round"
    stroke-linejoin="round"
  />
  <path
    d="M12.75 8.25H17.25C17.8023 8.25 18.25 7.80228 18.25 7.25V2.75M18.25 11.75C18.25 13.75 15.5 18.25 10.5 18.25 5.5 18.25 2.75 13.75 2.75 11.75"
    stroke="currentColor"
    stroke-width="1.5"
    stroke-linecap="round"
    stroke-linejoin="round"
  />
  <path
    d="M7.25 11.75L2.75 11.75C2.19772 11.75 1.75 12.1977 1.75 12.75L1.75 17.25"
    stroke="currentColor"
    stroke-width="1.5"
    stroke-linecap="round"
    stroke-linejoin="round"
  />
</svg>
